icon_installer/data/icons/scalable/actions/show-offline-globe-symbolic.svg

<?xml version="1.0" encoding="UTF-8"?>
<svg height="16px" viewBox="0 0 16 16" width="16px" xmlns="http://www.w3.org/2000/svg">
    <path d="m 7.5 0 c -4.15625 0 -7.5 3.34375 -7.5 7.5 c 0 3.714844 2.675781 6.777344 6.207031 7.386719 c 0.328125 0.660156 1.003907 1.113281 1.792969 1.113281 h 5.980469 c 1.109375 0 2 -0.890625 2 -2 v -6 c 0 -0.78125 -0.441407 -1.453125 -1.09375 -1.78125 c -0.605469 -3.539062 -3.667969 -6.21875 -7.386719 -6.21875 z m -1.875 2.324219 c -0.472656 0.503906 -0.867188 1.070312 -1.171875 1.675781 h -1.203125 c 0.621094 -0.753906 1.441406 -1.339844 2.375 -1.675781 z m 2.375 0.039062 c 0.605469 0.460938 1.101562 1.015625 1.480469 1.636719 h -1.480469 z m 1.5 0.011719 c 0.882812 0.34375 1.652344 0.90625 2.242188 1.625 h -1.121094 c -0.296875 -0.585938 -0.667969 -1.132812 -1.121094 -1.625 z m -2.5 0.046875 v 1.578125 h -1.398438 c 0.363282 -0.59375 0.828126 -1.128906 1.398438 -1.578125 z m -4.402344 2.578125 h 1.441406 c -0.214843 0.644531 -0.347656 1.320312 -0.390624 2 h -1.625 c 0.0625 -0.714844 0.265624 -1.390625 0.574218 -2 z m 2.507813 0 h 1.894531 v 1.269531 c -0.304688 0.171875 -0.558594 0.425781 -0.730469 0.730469 h -1.613281 c 0.046875 -0.683594 0.195312 -1.359375 0.449219 -2 z m 2.894531 0 h 1.976562 c 0.128907 0.324219 0.230469 0.660156 0.304688 1 h -2.28125 z m 3.039062 0 h 1.363282 c 0.160156 0.316406 0.289062 0.652344 0.390625 1 h -1.492188 c -0.066406 -0.339844 -0.152343 -0.671875 -0.261719 -1 z m -9.019531 3 h 1.628907 c 0.046874 0.679688 0.175781 1.355469 0.394531 2 h -1.441407 c -0.308593 -0.609375 -0.515624 -1.285156 -0.582031 -2 z m 2.636719 0 h 1.34375 v 2 h -0.890625 c -0.253906 -0.636719 -0.402344 -1.316406 -0.453125 -2 z m 3.34375 0 h 1 c 0.242188 0.007812 0.421875 0.082031 0.6875 0.3125 l 1.3125 1.28125 l 1.28125 -1.28125 c 0.175781 -0.183594 0.433594 -0.300781 0.6875 -0.3125 h 1.03125 v 1 c 0.023438 0.28125 -0.070312 0.554688 -0.28125 0.75 l -1.28125 1.28125 l 1.28125 1.25 c 0.1875 0.1875 0.28125 0.453125 0.28125 0.71875 v 1 h -1 c -0.265625 -0.007812 -0.53125 -0.09375 -0.71875 -0.28125 l -1.28125 -1.28125 l -1.28125 1.28125 c -0.175781 0.199219 -0.453125 0.28125 -0.71875 0.28125 h -1 v -1 c -0.003906 -0.265625 0.09375 -0.53125 0.28125 -0.71875 l 1.25 -1.25 l -1.28125 -1.28125 c -0.214844 -0.199219 -0.25 -0.464844 -0.25 -0.75 z m -4.75 3 h 1.210938 c 0.308593 0.605469 0.703124 1.175781 1.1875 1.675781 c -0.945313 -0.335937 -1.773438 -0.917969 -2.398438 -1.675781 z m 2.363281 0 h 0.386719 v 0.554688 c -0.140625 -0.179688 -0.269531 -0.363282 -0.386719 -0.554688 z m 0 0" fill="#222222"/>
</svg>

<svg xmlns="http://www.w3.org/2000/svg" width="16" height="16"><path fill="#222" d="M7.5 0A7.482 7.482 0 0 0 0 7.5a7.481 7.481 0 0 0 6.207 7.387A1.997 1.997 0 0 0 8 16h5.98c1.11 0 2-.89 2-2V8c0-.781-.44-1.453-1.093-1.781A7.478 7.478 0 0 0 7.5 0zM5.625 2.324A7.153 7.153 0 0 0 4.453 4H3.25a5.496 5.496 0 0 1 2.375-1.676zM8 2.364A5.945 5.945 0 0 1 9.48 4H8zm1.5.011A5.464 5.464 0 0 1 11.742 4h-1.12A7.178 7.178 0 0 0 9.5 2.375zM7 2.422V4H5.602A5.956 5.956 0 0 1 7 2.422zM2.598 5h1.441a7.923 7.923 0 0 0-.39 2H2.022c.063-.715.266-1.39.575-2zm2.507 0H7v1.27a1.93 1.93 0 0 0-.73.73H4.656a6.66 6.66 0 0 1 .45-2zM8 5h1.977c.128.324.23.66.304 1H8zm3.04 0h1.362c.16.316.29.652.391 1h-1.492a8.005 8.005 0 0 0-.262-1zM2.02 8h1.628c.047.68.176 1.355.395 2H2.602a5.568 5.568 0 0 1-.582-2zm2.636 0H6v2h-.89a6.763 6.763 0 0 1-.454-2zM8 8h1c.242.008.422.082.687.313L11 9.592l1.281-1.28c.176-.184.434-.301.688-.313H14v1a.904.904 0 0 1-.281.75l-1.282 1.281 1.282 1.25c.187.188.281.453.281.719v1h-1c-.266-.008-.531-.094-.719-.281L11 12.438l-1.281 1.28c-.176.2-.453.282-.719.282H8v-1a1 1 0 0 1 .281-.719l1.25-1.25L8.25 9.75C8.035 9.55 8 9.285 8 9zm-4.75 3h1.21a6.917 6.917 0 0 0 1.188 1.676A5.49 5.49 0 0 1 3.25 11zm2.363 0H6v.555A6.07 6.07 0 0 1 5.613 11zm0 0"/></svg>
